Numix/32/mimetypes/application-vnd.openxmlformats-officedocument.wordprocessingml.template.svg

<?xml version="1.0" encoding="UTF-8" standalone="no"?>
<svg
   xmlns:dc="http://purl.org/dc/elements/1.1/"
   xmlns:cc="http://creativecommons.org/ns#"
   xmlns:rdf="http://www.w3.org/1999/02/22-rdf-syntax-ns#"
   xmlns:svg="http://www.w3.org/2000/svg"
   xmlns="http://www.w3.org/2000/svg"
   xmlns:sodipodi="http://sodipodi.sourceforge.net/DTD/sodipodi-0.dtd"
   xmlns:inkscape="http://www.inkscape.org/namespaces/inkscape"
   width="32"
   height="32"
   viewBox="0 0 32 32"
   id="svg2"
   version="1.1"
   inkscape:version="0.91 r13725"
   sodipodi:docname="application-vnd.openxmlformats-officedocument.wordprocessingml.template.svg">
  <metadata
     id="metadata36">
    <rdf:RDF>
      <cc:Work
         rdf:about="">
        <dc:format>image/svg+xml</dc:format>
        <dc:type
           rdf:resource="http://purl.org/dc/dcmitype/StillImage" />
      </cc:Work>
    </rdf:RDF>
  </metadata>
  <defs
     id="defs34" />
  <sodipodi:namedview
     pagecolor="#ffffff"
     bordercolor="#666666"
     borderopacity="1"
     objecttolerance="10"
     gridtolerance="10"
     guidetolerance="10"
     inkscape:pageopacity="0"
     inkscape:pageshadow="2"
     inkscape:window-width="1366"
     inkscape:window-height="704"
     id="namedview32"
     showgrid="false"
     inkscape:zoom="1"
     inkscape:cx="18.145432"
     inkscape:cy="2.974315"
     inkscape:window-x="0"
     inkscape:window-y="27"
     inkscape:window-maximized="1"
     inkscape:current-layer="svg2">
    <inkscape:grid
       type="xygrid"
       id="grid3036" />
  </sodipodi:namedview>
  <path
     inkscape:connector-curvature="0"
     style="fill:#3468ce;fill-opacity:1"
     d="M 5.34375,0 C 4.656276,1.5e-5 4,0.689007 4,1.40625 l 0,29.1875 C 4,31.270239 4.695336,32 5.34375,32 l 21.3125,0 C 27.304664,32 28,31.270239 28,30.59375 L 28,8.999999 28,1.375 C 28,0.702049 27.297951,0 26.625,0 L 19,0 5.34375,0 z"
     id="path4-1" />
  <rect
     style="fill:#f9f9f9;fill-opacity:1;fill-rule:evenodd;stroke:none"
     id="rect3029"
     width="6"
     height="5"
     x="10"
     y="10" />
  <rect
     style="fill:#f9f9f9;fill-opacity:1;fill-rule:evenodd;stroke:none"
     id="rect3031"
     width="5"
     height="1"
     x="17"
     y="10" />
  <rect
     style="fill:#f9f9f9;fill-opacity:1;fill-rule:evenodd;stroke:none"
     id="rect3033"
     width="5"
     height="1"
     x="17"
     y="12" />
  <rect
     style="fill:#f9f9f9;fill-opacity:1;fill-rule:evenodd;stroke:none"
     id="rect3035"
     width="5"
     height="1"
     x="17"
     y="14" />
  <rect
     style="fill:#f9f9f9;fill-opacity:1;fill-rule:evenodd;stroke:none"
     id="rect3037"
     width="12"
     height="1"
     x="10"
     y="16" />
  <rect
     style="fill:#f9f9f9;fill-opacity:1;fill-rule:evenodd;stroke:none"
     id="rect3039"
     width="12"
     height="1"
     x="10"
     y="17.999998" />
  <rect
     style="fill:#f9f9f9;fill-opacity:1;fill-rule:evenodd;stroke:none"
     id="rect3041"
     width="12"
     height="1"
     x="10"
     y="19.999998" />
  <path
     style="fill:#000000;fill-opacity:0.19599998"
     d="m 4,24 0,6.667969 C 4,31.316407 4.6875,32 5.332031,32 l 21.335938,0 C 27.3125,32 28,31.316407 28,30.667969 L 28,24 z"
     id="path22"
     inkscape:connector-curvature="0" />
  <path
     style="fill:#ffffff"
     d="m 19.991185,26 1.418844,2.359093 C 20.862323,29.237406 20.361314,30.088812 19.9,31 l 1.1,0 c 0.303936,-0.669701 0.69963,-1.299088 1.017327,-1.915988 C 22.365199,29.73101 22.708408,30.364965 22.995,31 L 24.1,31 C 23.60297,30 23.110761,29.112323 22.622796,28.332506 L 24.010637,26 22.952,26 22.017327,27.596951 21.128,26 Z"
     id="path32"
     inkscape:connector-curvature="0"
     sodipodi:nodetypes="ccccccccccccc" />
  <path
     sodipodi:nodetypes="ccccccccc"
     inkscape:connector-curvature="0"
     id="path4143"
     d="m 15.8,26 0,0.824855 1.335093,0 0,4.175145 0.964907,0 0,-4.175145 1.391808,0 0,-0.824855 z"
     style="fill:#ffffff" />
  <path
     style="fill:#ffffff"
     d="M 9.1871894,25.90152 C 8.7760148,25.88738 8.371193,25.975195 8,26.026965 l 0,4.95313 c 0.3557161,0.09673 0.7237127,0.09202 1.0570429,0.119905 0.3370392,0 0.6450003,-0.04731 0.9253091,-0.13651 0.283646,-0.10085 0.523358,-0.251741 0.726915,-0.461185 0.203558,-0.205566 0.3611,-0.472783 0.47456,-0.802463 0.1168,-0.33356 0.176173,-0.73327 0.176173,-1.206462 0,-0.457675 -0.05353,-0.849486 -0.160302,-1.171411 C 11.09625,26.996167 10.953278,26.728954 10.766406,26.519508 10.579533,26.306184 10.34963,26.149756 10.075995,26.052787 9.809033,25.951939 9.5142173,25.901519 9.1871894,25.90152 Z m 0.087293,0.881777 c 0.2202425,0 0.4012275,0.04674 0.5380445,0.147579 0.1401554,0.09309 0.2500451,0.217304 0.3301271,0.376328 0.08009,0.159022 0.136609,0.34049 0.166651,0.546042 0.03337,0.209445 0.0492,0.422923 0.0492,0.640125 0,0.25211 -0.02328,0.48399 -0.06666,0.697313 -0.0367,0.209445 -0.103207,0.389243 -0.199981,0.540509 -0.0901,0.155143 -0.2131291,0.274389 -0.3666325,0.359726 -0.1501654,0.0892 -0.3366842,0.13282 -0.5602645,0.13282 -0.058925,0.0073 -0.124143,-0.0064 -0.1777614,-0.0092 l 0,-3.409082 c 0.098486,-0.02169 0.1926925,-0.01483 0.2872743,-0.02213 z"
     id="path4145"
     inkscape:connector-curvature="0"
     sodipodi:nodetypes="cccccccsccccccccscccccccc" />
  <path
     sodipodi:nodetypes="scscscscsscccscccscccscccs"
     inkscape:connector-curvature="0"
     id="path4147"
     d="m 13.709065,25.9 c -0.573705,0 -1.020422,0.217618 -1.344838,0.659512 -0.321002,0.434276 -0.480763,1.081552 -0.480763,1.938675 0,0.860937 0.153764,1.507652 0.464521,1.949548 0.317587,0.434278 0.77484,0.652265 1.372449,0.652265 0.577121,0 1.027252,-0.217987 1.344839,-0.652265 0.314172,-0.441896 0.474266,-1.088611 0.474266,-1.949548 0,-0.857123 -0.157012,-1.504399 -0.46777,-1.938675 C 14.761012,26.117618 14.306674,25.9 13.709065,25.9 Z m 0,0.860619 c 0.174161,0 0.354665,0.04627 0.460526,0.1377 0.102449,0.09143 0.180874,0.213432 0.23551,0.369617 0.06147,0.156189 0.09987,0.339101 0.116942,0.556237 0.02048,0.209521 0.03411,0.434014 0.03411,0.674006 0,0.243806 -0.01362,0.468112 -0.03411,0.677631 -0.01708,0.20952 -0.05548,0.392433 -0.116942,0.556238 -0.05464,0.156188 -0.135976,0.278186 -0.245254,0.369616 -0.102447,0.09143 -0.280036,0.137701 -0.450782,0.137701 -0.17416,0 -0.353341,-0.04627 -0.455786,-0.137701 -0.105863,-0.09143 -0.187193,-0.213428 -0.245255,-0.369616 -0.05464,-0.156186 -0.09645,-0.339469 -0.116942,-0.548989 -0.01708,-0.213329 -0.02436,-0.441074 -0.02436,-0.68488 0,-0.239992 0.0073,-0.464485 0.02436,-0.674006 0.02049,-0.209519 0.06231,-0.392804 0.116942,-0.548989 0.05805,-0.159998 0.139392,-0.285433 0.245255,-0.376865 0.102446,-0.09144 0.281626,-0.1377 0.455786,-0.1377 z"
     style="fill:#ffffff" />
</svg>

<svg xmlns="http://www.w3.org/2000/svg" viewBox="0 0 32 32">
 <path d="m 5.344 0 c -0.687 0 -1.344 0.689 -1.344 1.406 l 0 29.19 c 0 0.676 0.695 1.406 1.344 1.406 l 21.313 0 c 0.648 0 1.344 -0.73 1.344 -1.406 l 0 -21.594 0 -7.625 c 0 -0.673 -0.702 -1.375 -1.375 -1.375 l -7.625 0 -13.656 0 z" style="fill:#3468ce;fill-opacity:1"/>
 <rect width="6" height="5" x="10" y="10" style="fill:#f9f9f9;fill-opacity:1;stroke:none;fill-rule:evenodd"/>
 <rect width="5" height="1" x="17" y="10" style="fill:#f9f9f9;fill-opacity:1;stroke:none;fill-rule:evenodd"/>
 <rect width="5" height="1" x="17" y="12" style="fill:#f9f9f9;fill-opacity:1;stroke:none;fill-rule:evenodd"/>
 <rect width="5" height="1" x="17" y="14" style="fill:#f9f9f9;fill-opacity:1;stroke:none;fill-rule:evenodd"/>
 <rect width="12" height="1" x="10" y="16" style="fill:#f9f9f9;fill-opacity:1;stroke:none;fill-rule:evenodd"/>
 <rect width="12" height="1" x="10" y="18" style="fill:#f9f9f9;fill-opacity:1;stroke:none;fill-rule:evenodd"/>
 <rect width="12" height="1" x="10" y="20" style="fill:#f9f9f9;fill-opacity:1;stroke:none;fill-rule:evenodd"/>
 <path d="m 4 24 0 6.668 c 0 0.648 0.688 1.332 1.332 1.332 l 21.336 0 c 0.645 0 1.332 -0.684 1.332 -1.332 l 0 -6.668 z" style="fill:#000;fill-opacity:0.196"/>
 <path d="m 19.991 26 1.419 2.359 c -0.548 0.878 -1.049 1.73 -1.51 2.641 l 1.1 0 c 0.304 -0.67 0.7 -1.299 1.017 -1.916 c 0.348 0.647 0.691 1.281 0.978 1.916 l 1.105 0 c -0.497 -1 -0.989 -1.888 -1.477 -2.667 l 1.388 -2.333 -1.059 0 -0.935 1.597 -0.889 -1.597" style="fill:#fff"/>
 <path d="m 15.8 26 0 0.825 1.335 0 0 4.175 0.965 0 0 -4.175 1.392 0 0 -0.825 z" style="fill:#fff"/>
 <path d="m 9.187 25.902 c -0.411 -0.014 -0.816 0.074 -1.187 0.125 l 0 4.953 c 0.356 0.097 0.724 0.092 1.057 0.12 0.337 0 0.645 -0.047 0.925 -0.137 0.284 -0.101 0.523 -0.252 0.727 -0.461 0.204 -0.206 0.361 -0.473 0.475 -0.802 0.117 -0.334 0.176 -0.733 0.176 -1.206 0 -0.458 -0.054 -0.849 -0.16 -1.171 c -0.103 -0.326 -0.246 -0.593 -0.433 -0.802 -0.187 -0.213 -0.417 -0.37 -0.69 -0.467 -0.267 -0.101 -0.562 -0.151 -0.889 -0.151 m 0.087 0.882 c 0.22 0 0.401 0.047 0.538 0.148 0.14 0.093 0.25 0.217 0.33 0.376 0.08 0.159 0.137 0.34 0.167 0.546 0.033 0.209 0.049 0.423 0.049 0.64 0 0.252 -0.023 0.484 -0.067 0.697 -0.037 0.209 -0.103 0.389 -0.2 0.541 -0.09 0.155 -0.213 0.274 -0.367 0.36 -0.15 0.089 -0.337 0.133 -0.56 0.133 -0.059 0.007 -0.124 -0.006 -0.178 -0.009 l 0 -3.409 c 0.098 -0.022 0.193 -0.015 0.287 -0.022 z" style="fill:#fff"/>
 <path d="m 13.709 25.9 c -0.574 0 -1.02 0.218 -1.345 0.66 -0.321 0.434 -0.481 1.082 -0.481 1.939 0 0.861 0.154 1.508 0.465 1.95 0.318 0.434 0.775 0.652 1.372 0.652 0.577 0 1.027 -0.218 1.345 -0.652 0.314 -0.442 0.474 -1.089 0.474 -1.95 0 -0.857 -0.157 -1.504 -0.468 -1.939 c -0.311 -0.442 -0.765 -0.66 -1.363 -0.66 m 0 0.861 c 0.174 0 0.355 0.046 0.461 0.138 0.102 0.091 0.181 0.213 0.236 0.37 0.061 0.156 0.1 0.339 0.117 0.556 0.02 0.21 0.034 0.434 0.034 0.674 0 0.244 -0.014 0.468 -0.034 0.678 -0.017 0.21 -0.055 0.392 -0.117 0.556 -0.055 0.156 -0.136 0.278 -0.245 0.37 -0.102 0.091 -0.28 0.138 -0.451 0.138 -0.174 0 -0.353 -0.046 -0.456 -0.138 -0.106 -0.091 -0.187 -0.213 -0.245 -0.37 -0.055 -0.156 -0.096 -0.339 -0.117 -0.549 -0.017 -0.213 -0.024 -0.441 -0.024 -0.685 0 -0.24 0.007 -0.464 0.024 -0.674 0.02 -0.21 0.062 -0.393 0.117 -0.549 0.058 -0.16 0.139 -0.285 0.245 -0.377 0.102 -0.091 0.282 -0.138 0.456 -0.138 z" style="fill:#fff"/>
</svg>
